app/dist/common/images/yangling-metron-ne.svg

<svg height="18" viewBox="0 0 18 18" width="18" xmlns="http://www.w3.org/2000/svg"><path d="m0 0h18v18h-18z" fill="#f0f3fa"/><g opacity=".5"><path d="m5.13 5h3.36l-2.12 7h-3.37zm5.56 7 2.1-7h-3.49l-.4 1.28 1.8 5.72z" fill="#b78c48"/><path d="m12.79 5 2.21 7h-3.53l-.42-1.32 1.75-5.68zm-4.29 0 2.19 7h-3.53l-.4-1.28z" fill="#3e3a39"/></g></svg>

<!-- by TradingView --><svg width="18" height="18" viewBox="0 0 18 18" xmlns="http://www.w3.org/2000/svg"><path fill="#F0F3FA" d="M0 0h18v18H0z"/><g opacity=".5"><path d="M5.13 5h3.36l-2.12 7H3l2.13-7ZM10.69 12l2.1-7H9.3l-.4 1.28L10.7 12Z" fill="#B78C48"/><path d="M12.79 5 15 12h-3.53l-.42-1.32L12.8 5ZM8.5 5l2.19 7H7.16l-.4-1.28L8.5 5Z" fill="#3E3A39"/></g></svg>
